icons/svg/clock-alert.svg

﻿<?xml version="1.0" encoding="utf-8"?>
<!DOCTYPE svg PUBLIC "-//W3C//DTD SVG 1.1//EN" "http://www.w3.org/Graphics/SVG/1.1/DTD/svg11.dtd">
<svg xmlns="http://www.w3.org/2000/svg" xmlns:xlink="http://www.w3.org/1999/xlink" version="1.1" baseProfile="full" width="24" height="24" viewBox="0 0 24.00 24.00" enable-background="new 0 0 24.00 24.00" xml:space="preserve">
	<path fill="#000000" fill-opacity="1" stroke-width="1.33333" stroke-linejoin="miter" d="M 11.9941,1.998C 6.46709,1.998 2,6.475 2,11.998C 2,17.5211 6.46709,21.998 11.9941,21.998C 14.2511,21.998 16.3262,21.2422 18,19.9824L 18,17.2773C 16.5342,18.9418 14.3933,19.998 12,19.998C 7.57999,19.998 4,16.4161 4,11.998C 4,7.58 7.57999,3.998 12,3.998C 15.3584,3.998 18.2275,6.0686 19.4141,9L 21.541,9C 20.267,4.9415 16.4753,1.998 11.9941,1.998 Z M 11,6.998L 11,12.998L 16.2461,16.1484L 17,14.918L 12.5,12.248L 12.5,6.998L 11,6.998 Z M 20,11L 20,18L 22,18L 22,11L 20,11 Z M 20,20L 20,22L 22,22L 22,20L 20,20 Z "/>
</svg>

<svg xmlns="http://www.w3.org/2000/svg" version="1.1" baseProfile="full" width="24" height="24" viewBox="0 0 24.00 24.00" xml:space="preserve"><path fill="#000" fill-opacity="1" stroke-width="1.333" stroke-linejoin="miter" d="M11.994 1.998C6.467 1.998 2 6.475 2 11.998s4.467 10 9.994 10c2.257 0 4.332-.756 6.006-2.016v-2.705c-1.466 1.665-3.607 2.72-6 2.72-4.42 0-8-3.58-8-8 0-4.417 3.58-8 8-8 3.358 0 6.227 2.072 7.414 5.003h2.127c-1.273-4.06-5.065-7.002-9.546-7.002zm-.994 5v6l5.246 3.15.754-1.23-4.5-2.67v-5.25H11zM20 11v7h2v-7h-2zm0 9v2h2v-2h-2z"/></svg>
